**kern	**silbe	**harmony	**phrase	**leadinstrument	**rhyme	**timestamp	**harte
*ICvox	*	*M4/4	*	*	*	*	*M4/4
*VRlead	*	*	*	*	*	*	*
*Hstimme	*	*	*	*	*	*	*
*C:	*	*C:	*	*	*	*	*C:
*M4/4	*	*	*	*	*	*	*
*clefG2	*	*	*	*	*	*	*
r;	.	1r;	.	r	.	0	N.C.
=1	=1	=1	=1	=1	=1	=1	=1
*>Letter>A	*>Letter>A	*>Letter>A	*>Letter>A	*>Letter>A	*>Letter>A	*>Letter>A	*>Letter>A
*>Label>Intro	*>Label>Intro	*>Label>Intro	*>Label>Intro	*>Label>Intro	*>Label>Intro	*>Label>Intro	*>Label>Intro
1r	.	1FMM	newline	r	.	0.395	F:maj7
=2	=2	=2	=2	=2	=2	=2	=2
1r	.	1FMM	.	r	.	2.303	F:maj7
=3	=3	=3	=3	=3	=3	=3	=3
1r	.	1Dmm	.	r	.	4.211	D:min7
=4	=4	=4	=4	=4	=4	=4	=4
1r	.	1GM	.	r	.	6.118	G:sus4(b7)
=5	=5	=5	=5	=5	=5	=5	=5
1r	.	1CM	newline	r	.	8.026	C:maj
=6	=6	=6	=6	=6	=6	=6	=6
1r	.	1CM	.	r	.	9.893	C:maj
=7	=7	=7	=7	=7	=7	=7	=7
*>Letter>B	*>Letter>B	*>Letter>B	*>Letter>B	*>Letter>B	*>Letter>B	*>Letter>B	*>Letter>B
*>Label>Verse	*>Label>Verse	*>Label>Verse	*>Label>Verse	*>Label>Verse	*>Label>Verse	*>Label>Verse	*>Label>Verse
4r	.	1FMM	newline	voice	.	11.76	F:maj7
8r	.	.	.	.	.	.	.
8e	I	.	.	.	.	.	.
8e	ne-	.	.	.	.	.	.
8e	-ver	.	.	.	.	.	.
8e	can	.	.	.	.	.	.
[8c	_	.	.	.	.	.	.
=8	=8	=8	=8	=8	=8	=8	=8
4c]	_	1FMM	.	voice	.	13.632	F:maj7
8c	say	.	.	.	.	.	.
[8A	_	.	.	.	.	.	.
8A]	_	.	.	.	.	.	.
4A	good-	.	.	.	.	.	.
[8d	-bye	.	.	.	.	.	.
=9	=9	=9	=9	=9	=9	=9	=9
2d_	_	1GM	.	voice	.	15.504	G:sus4(b7)
8d]	_	.	.	.	.	.	.
8r	.	.	.	.	.	.	.
8r	.	.	.	.	.	.	.
[8e	No	.	.	.	.	.	.
=10	=10	=10	=10	=10	=10	=10	=10
8e]	_	1GM	.	voice	.	17.377	G:sus4(b7)
4e	no	.	.	.	.	.	.
8c	_	.	.	.	.	.	.
8d	no	.	.	.	.	.	.
8A	_	.	.	.	.	.	.
[4A	I	.	.	.	.	.	.
=11	=11	=11	=11	=11	=11	=11	=11
4A]	_	1FMM	newline	voice	.	19.249	F:maj7
8r	.	.	.	.	.	.	.
8e	I	.	.	.	.	.	.
8e	ne-	.	.	.	.	.	.
8e	-ver	.	.	.	.	.	.
8e	can	.	.	.	.	.	.
[8c	_	.	.	.	.	.	.
=12	=12	=12	=12	=12	=12	=12	=12
4c]	_	1FMM	.	voice	.	21.137	F:maj7
8c	say	.	.	.	.	.	.
[8A	_	.	.	.	.	.	.
8A]	_	.	.	.	.	.	.
4e	good-	.	.	.	.	.	.
[8d	-bye	.	.	.	.	.	.
=13	=13	=13	=13	=13	=13	=13	=13
2.d]	_	1GM	.	voice	.	23.025	G:sus4(b7)
4r	.	.	.	.	.	.	.
=14	=14	=14	=14	=14	=14	=14	=14
2r	.	1GMm	.	voice	.	24.913	G:7
4e	Ev-	.	.	.	.	.	.
4f	-ery	.	.	.	.	.	.
=15	=15	=15	=15	=15	=15	=15	=15
4g	time	1CMM	newline	voice	.	26.8	C:maj7
4g	I	.	.	.	.	.	.
8g	think	.	.	.	.	.	.
4g	I've	.	.	.	.	.	.
[8g	had	.	.	.	.	.	.
=16	=16	=16	=16	=16	=16	=16	=16
8g]	_	1CMM	.	voice	.	28.688	C:maj7
4g	e-	.	.	.	.	.	.
4g	-nough	.	.	.	.	.	.
8g	and	.	.	.	.	.	.
8a	start	.	.	.	.	.	.
8g	_	.	.	.	.	.	.
=17	=17	=17	=17	=17	=17	=17	=17
4b-	head-	1Cmm	.	voice	.	30.576	C:min7
4a	-ing	.	.	.	.	.	.
8g	for	.	.	.	.	.	.
8f	_	.	.	.	.	.	.
8f	the	.	.	.	.	.	.
8g	door	.	.	.	A	.	.
=18	=18	=18	=18	=18	=18	=18	=18
8~f#	_	1Cmm	.	voice	.	32.463	C:min7
4.r	.	.	.	.	.	.	.
8r	.	.	.	.	.	.	.
8.e	There's	.	.	.	.	.	.
8.g	a	.	.	.	.	.	.
=19	=19	=19	=19	=19	=19	=19	=19
4g	ver-	1CMM	newline	voice	.	34.351	C:maj7
8g	-y	.	.	.	.	.	.
4g	strange	.	.	.	.	.	.
4g	vi-	.	.	.	.	.	.
[8g	-bra-	.	.	.	.	.	.
=20	=20	=20	=20	=20	=20	=20	=20
8g]	_	1CMM	.	voice	.	36.232	C:maj7
8g	-tion	.	.	.	.	.	.
4e	_	.	.	.	.	.	.
8r	.	.	.	.	.	.	.
8.g	pier-	.	.	.	.	.	.
16a	-cing	.	.	.	.	.	.
8g	_	.	.	.	.	.	.
=21	=21	=21	=21	=21	=21	=21	=21
4b-	me	1Cmm	.	voice	.	38.113	C:min7
4a	right	.	.	.	.	.	.
8g	to	.	.	.	.	.	.
8f	_	.	.	.	.	.	.
8f	the	.	.	.	.	.	.
8g	core	.	.	.	A	.	.
=22	=22	=22	=22	=22	=22	=22	=22
8~f#	_	1Cmm	.	voice	.	39.994	C:min7
8r	.	.	.	.	.	.	.
4r	.	.	.	.	.	.	.
8r	.	.	.	.	.	.	.
8g	It	.	.	.	.	.	.
8a	says	.	.	.	.	.	.
8g	_	.	.	.	.	.	.
=23	=23	=23	=23	=23	=23	=23	=23
4b	turn	1CMM	newline	voice	.	41.875	C:maj7
8cc	a-	.	.	.	.	.	.
4b	-round	.	.	.	.	.	.
4g	you	.	.	.	.	.	.
8g	fool	.	.	.	.	.	.
=24	=24	=24	=24	=24	=24	=24	=24
4e	_	1CMM	.	voice	.	43.764	C:maj7
8r	.	.	.	.	.	.	.
8g	You	.	.	.	.	.	.
8g	know	.	.	.	.	.	.
8a	you	.	.	.	.	.	.
8g	_	.	.	.	.	.	.
[8b-	love	.	.	.	.	.	.
=25	=25	=25	=25	=25	=25	=25	=25
8b-]	_	1Cmm	.	voice	.	45.653	C:min7
4cc	him	.	.	.	.	.	.
4dd	more	.	.	.	A	.	.
16cc	and	.	.	.	.	.	.
8.b-	_	.	.	.	.	.	.
8dd	more	.	.	.	A	.	.
=26	=26	=26	=26	=26	=26	=26	=26
2cc	_	1CMm	.	voice	.	47.543	C:7
8r	.	.	.	.	.	.	.
4cc	Tell	.	.	.	.	.	.
8cc	me	.	.	.	.	.	.
=27	=27	=27	=27	=27	=27	=27	=27
8a-	why	1FMM	newline	voice	.	49.432	F:maj7
4g	_	.	.	.	.	.	.
[4.f	_	.	.	.	.	.	.
4f]	_	.	.	.	.	.	.
=28	=28	=28	=28	=28	=28	=28	=28
2r	.	1FMM	.	voice	.	51.304	F:maj7
8a	is	.	.	.	.	.	.
4b	he	.	.	.	.	.	.
8b	so	.	.	.	B	.	.
=29	=29	=29	=29	=29	=29	=29	=29
1cc	_	1Dmm	.	voice	.	53.176	D:min7
=30	=30	=30	=30	=30	=30	=30	=30
8r	.	1GM	.	voice	.	55.048	G:sus4(b7)
8g	Don't	.	.	.	.	.	.
8g	wan-	.	.	.	.	.	.
8g	-na	.	.	.	.	.	.
8a	let	.	.	.	.	.	.
4cc	you	.	.	.	.	.	.
[8ee	go	.	.	.	B	.	.
=31	=31	=31	=31	=31	=31	=31	=31
*>Letter>C	*>Letter>C	*>Letter>C	*>Letter>C	*>Letter>C	*>Letter>C	*>Letter>C	*>Letter>C
*>Label>Chorus	*>Label>Chorus	*>Label>Chorus	*>Label>Chorus	*>Label>Chorus	*>Label>Chorus	*>Label>Chorus	*>Label>Chorus
4ee]	_	1CM	newline	voice	.	56.921	C:maj
4g	_	.	.	.	.	.	.
8r	.	.	.	.	.	.	.
8cc	Hey	.	.	.	.	.	.
8g	_	.	.	.	.	.	.
8g	I	.	.	.	.	.	.
=32	=32	=32	=32	=32	=32	=32	=32
8cc	ne-	1CM	.	voice	.	58.805	C:maj
8cc	-ver	.	.	.	.	.	.
8cc	can	.	.	.	.	.	.
8g	_	.	.	.	.	.	.
4cc	say	.	.	.	.	.	.
8cc	good-	.	.	.	.	.	.
8cc	-bye	.	.	.	.	.	.
=33	=33	=33	=33	=33	=33	=33	=33
8b-	_	1Cmm	.	voice	.	60.689	C:min7
[4.b-	boy	.	.	.	.	.	.
4b-]	_	.	.	.	.	.	.
4r	.	.	.	.	.	.	.
=34	=34	=34	=34	=34	=34	=34	=34
8r	.	1Cmm	.	voice	.	62.573	C:min7
8ee-	Hoo	.	.	.	.	.	.
8dd	_	.	.	.	.	.	.
8dd	Hoo	.	.	.	.	.	.
16ee-	_	.	.	.	.	.	.
16dd	_	.	.	.	.	.	.
4cc	_	.	.	.	.	.	.
16dd	ba-	.	.	.	.	.	.
16ee-	_	.	.	.	.	.	.
=35	=35	=35	=35	=35	=35	=35	=35
8dd	_	1DM	newline	voice	.	64.457	D:maj/b7
8cc	-by	.	.	.	.	.	.
4.a	_	.	.	.	.	.	.
8r	.	.	.	.	.	.	.
8r	.	.	.	.	.	.	.
8a	I	.	.	.	.	.	.
=36	=36	=36	=36	=36	=36	=36	=36
8cc	ne-	1D-MM	.	voice	.	66.347	D-:maj7/7
8cc	-ver	.	.	.	.	.	.
8cc	can	.	.	.	.	.	.
8a-	_	.	.	.	.	.	.
4cc	say	.	.	.	.	.	.
8cc	good-	.	.	.	.	.	.
[8cc	-bye	.	.	.	.	.	.
=37	=37	=37	=37	=37	=37	=37	=37
8cc]	_	1CM	.	voice	.	68.237	C:maj
4cc	no	.	.	.	.	.	.
8g	_	.	.	.	.	.	.
8r	.	.	.	.	.	.	.
4cc	oh	.	.	.	.	.	.
8g	_	.	.	.	.	.	.
=38	=38	=38	=38	=38	=38	=38	=38
8r	.	1CM	.	voice	.	70.127	C:maj
4cc	No	.	.	.	.	.	.
8g	_	.	.	.	.	.	.
8r	.	.	.	.	.	.	.
4cc	Hey	.	.	.	.	.	.
[8g	_	.	.	.	.	.	.
=39	=39	=39	=39	=39	=39	=39	=39
*>Letter>B	*>Letter>B	*>Letter>B	*>Letter>B	*>Letter>B	*>Letter>B	*>Letter>B	*>Letter>B
*>Label>Verse	*>Label>Verse	*>Label>Verse	*>Label>Verse	*>Label>Verse	*>Label>Verse	*>Label>Verse	*>Label>Verse
4g]	_	1FMM	newline	voice	.	72.018	F:maj7
8r	.	.	.	.	.	.	.
8e	I	.	.	.	.	.	.
8e	ne-	.	.	.	.	.	.
8e	-ver	.	.	.	.	.	.
8e	can	.	.	.	.	.	.
[8c	_	.	.	.	.	.	.
=40	=40	=40	=40	=40	=40	=40	=40
4c]	_	1FMM	.	voice	.	73.931	F:maj7
8c	say	.	.	.	.	.	.
[8A	_	.	.	.	.	.	.
8A]	_	.	.	.	.	.	.
4A	good-	.	.	.	.	.	.
[8d	-bye	.	.	.	.	.	.
=41	=41	=41	=41	=41	=41	=41	=41
2d_	_	1GM	.	voice	.	75.844	G:sus4(b7)
8d]	_	.	.	.	.	.	.
8r	.	.	.	.	.	.	.
4r	.	.	.	.	.	.	.
=42	=42	=42	=42	=42	=42	=42	=42
8r	.	1GM	.	voice	.	77.757	G:sus4(b7)
8e	Ho	.	.	.	.	.	.
8d	_	.	.	.	.	.	.
8r	.	.	.	.	.	.	.
8d	no	.	.	.	.	.	.
8A	_	.	.	.	.	.	.
[4A	I	.	.	.	.	.	.
=43	=43	=43	=43	=43	=43	=43	=43
4A]	_	1FMM	newline	voice	.	79.67	F:maj7
8r	.	.	.	.	.	.	.
8e	I	.	.	.	.	.	.
8e	ne-	.	.	.	.	.	.
8e	-ver	.	.	.	.	.	.
8e	can	.	.	.	.	.	.
[8c	_	.	.	.	.	.	.
=44	=44	=44	=44	=44	=44	=44	=44
4c]	_	1FMM	.	voice	.	81.547	F:maj7
8c	say	.	.	.	.	.	.
[8A	_	.	.	.	.	.	.
8A]	_	.	.	.	.	.	.
4e	good-	.	.	.	.	.	.
[8d	-bye	.	.	.	.	.	.
=45	=45	=45	=45	=45	=45	=45	=45
2.d]	_	1GM	.	voice	.	83.424	G:sus4(b7)
4r	.	.	.	.	.	.	.
=46	=46	=46	=46	=46	=46	=46	=46
2r	.	1GMm	.	voice	.	85.302	G:7
4e	I	.	.	.	.	.	.
4f	keep	.	.	.	.	.	.
=47	=47	=47	=47	=47	=47	=47	=47
4g	think-	1CMM	newline	voice	.	87.179	C:maj7
4g	-ing	.	.	.	.	.	.
8g	that	.	.	.	.	.	.
8a	our	.	.	.	.	.	.
8g	_	.	.	.	.	.	.
[8g	prob-	.	.	.	.	.	.
=48	=48	=48	=48	=48	=48	=48	=48
8g]	_	1CMM	.	voice	.	89.068	C:maj7
4.g	-lems	.	.	.	.	.	.
4g	soon	.	.	.	.	.	.
8a	are	.	.	.	.	.	.
8g	_	.	.	.	.	.	.
=49	=49	=49	=49	=49	=49	=49	=49
4b-	all	1Cmm	.	voice	.	90.957	C:min7
4a	_	.	.	.	.	.	.
8g	gon-	.	.	.	.	.	.
8f#	-na	.	.	.	.	.	.
8a	work	.	.	.	.	.	.
8g	out	.	.	.	C	.	.
=50	=50	=50	=50	=50	=50	=50	=50
4~f#	_	1Cmm	.	voice	.	92.846	C:min7
8r	.	.	.	.	.	.	.
8e	but	.	.	.	.	.	.
4e	there's	.	.	.	.	.	.
8e	that	.	.	.	.	.	.
8g	_	.	.	.	.	.	.
=51	=51	=51	=51	=51	=51	=51	=51
4g	same	1CMM	newline	voice	.	94.735	C:maj7
8g	un-	.	.	.	.	.	.
8e	_	.	.	.	.	.	.
4g	-ha-	.	.	.	.	.	.
8g	-ppy	.	.	.	.	.	.
[8g	feel-	.	.	.	.	.	.
=52	=52	=52	=52	=52	=52	=52	=52
8g]	_	1CMM	.	voice	.	96.626	C:maj7
8g	-ing	.	.	.	.	.	.
8e	_	.	.	.	.	.	.
8r	.	.	.	.	.	.	.
4g	There's	.	.	.	.	.	.
4a	that	.	.	.	.	.	.
=53	=53	=53	=53	=53	=53	=53	=53
4b-	an-	1Cmm	.	voice	.	98.518	C:min7
4a	-guish	.	.	.	.	.	.
8g	there's	.	.	.	.	.	.
8f	_	.	.	.	.	.	.
8f	that	.	.	.	.	.	.
8g	doubt	.	.	.	C	.	.
=54	=54	=54	=54	=54	=54	=54	=54
4~f#	_	1Cmm	.	voice	.	100.409	C:min7
4r	.	.	.	.	.	.	.
8r	.	.	.	.	.	.	.
8g	It's	.	.	.	.	.	.
8a	that	.	.	.	.	.	.
8g	_	.	.	.	.	.	.
=55	=55	=55	=55	=55	=55	=55	=55
4b	same	1CMM	newline	voice	.	102.3	C:maj7
4cc	old	.	.	.	.	.	.
4b	diz-	.	.	.	.	.	.
8cc	-zy	.	.	.	.	.	.
8b	hang-	.	.	.	.	.	.
=56	=56	=56	=56	=56	=56	=56	=56
8g	_	1CMM	.	voice	.	104.189	C:maj7
8g	-up	.	.	.	.	.	.
8r	.	.	.	.	.	.	.
8g	I	.	.	.	.	.	.
8g	can't	.	.	.	.	.	.
8a	do	.	.	.	.	.	.
8g	_	.	.	.	.	.	.
[8b-	with	.	.	.	.	.	.
=57	=57	=57	=57	=57	=57	=57	=57
8b-]	_	1Cmm	.	voice	.	106.078	C:min7
4cc	you	.	.	.	.	.	.
8dd	or	.	.	.	.	.	.
8cc	_	.	.	.	.	.	.
8b-	_	.	.	.	.	.	.
8b-	with	.	.	.	.	.	.
8dd	out	.	.	.	C	.	.
=58	=58	=58	=58	=58	=58	=58	=58
4.cc	_	1CMm	.	voice	.	107.967	C:7
8r	.	.	.	.	.	.	.
8r	.	.	.	.	.	.	.
4cc	Tell	.	.	.	.	.	.
8dd	me	.	.	.	.	.	.
=59	=59	=59	=59	=59	=59	=59	=59
8ee	why	1FMM	newline	voice	.	109.856	F:maj7
4dd	_	.	.	.	.	.	.
4cc	_	.	.	.	.	.	.
8a	_	.	.	.	.	.	.
8a	_	.	.	.	.	.	.
[8cc	_	.	.	.	.	.	.
=60	=60	=60	=60	=60	=60	=60	=60
4cc]	_	1FMM	.	voice	.	111.755	F:maj7
4r	.	.	.	.	.	.	.
8ee	is	.	.	.	.	.	.
4ee	it	.	.	.	.	.	.
16dd	so?	.	.	.	B	.	.
16ee	_	.	.	.	.	.	.
=61	=61	=61	=61	=61	=61	=61	=61
2cc	_	1Dmm	.	voice	.	113.653	D:min7
4a	_	.	.	.	.	.	.
8r	.	.	.	.	.	.	.
8g	I	.	.	.	.	.	.
=62	=62	=62	=62	=62	=62	=62	=62
8ee-	don't	1GM	.	voice	.	115.552	G:sus4(b7)
8dd	_	.	.	.	.	.	.
8cc	wan-	.	.	.	.	.	.
8cc	-na	.	.	.	.	.	.
4cc	let	.	.	.	.	.	.
8cc	you	.	.	.	.	.	.
8ee	go	.	.	.	B	.	.
=63	=63	=63	=63	=63	=63	=63	=63
*>Letter>C	*>Letter>C	*>Letter>C	*>Letter>C	*>Letter>C	*>Letter>C	*>Letter>C	*>Letter>C
*>Label>Chorus	*>Label>Chorus	*>Label>Chorus	*>Label>Chorus	*>Label>Chorus	*>Label>Chorus	*>Label>Chorus	*>Label>Chorus
4ee	_	1CM	newline	voice	.	117.45	C:maj
4g	_	.	.	.	.	.	.
8r	.	.	.	.	.	.	.
8cc	Hey	.	.	.	.	.	.
8g	_	.	.	.	.	.	.
8g	I	.	.	.	.	.	.
=64	=64	=64	=64	=64	=64	=64	=64
8cc	ne-	1CM	.	voice	.	119.326	C:maj
8cc	-ver	.	.	.	.	.	.
8cc	can	.	.	.	.	.	.
8g	_	.	.	.	.	.	.
4cc	say	.	.	.	.	.	.
8cc	good-	.	.	.	.	.	.
8cc	-bye	.	.	.	.	.	.
=65	=65	=65	=65	=65	=65	=65	=65
8b-	_	1Cmm	.	voice	.	121.202	C:min7
[4.b-	boy	.	.	.	.	.	.
4b-]	_	.	.	.	.	.	.
4r	.	.	.	.	.	.	.
=66	=66	=66	=66	=66	=66	=66	=66
8r	.	1Cmm	.	voice	.	123.078	C:min7
4cc	Ooh	.	.	.	.	.	.
8dd	Hoo	.	.	.	.	.	.
16ee-	_	.	.	.	.	.	.
16dd	_	.	.	.	.	.	.
4cc	_	.	.	.	.	.	.
16dd	ba-	.	.	.	.	.	.
16ee-	_	.	.	.	.	.	.
=67	=67	=67	=67	=67	=67	=67	=67
8dd	_	1DM	newline	voice	.	124.954	D:maj/b7
8cc	-by	.	.	.	.	.	.
2a	_	.	.	.	.	.	.
8r	.	.	.	.	.	.	.
8a	I	.	.	.	.	.	.
=68	=68	=68	=68	=68	=68	=68	=68
8cc	ne-	1D-MM	.	voice	.	126.857	D-:maj7/7
8cc	-ver	.	.	.	.	.	.
8cc	can	.	.	.	.	.	.
8a-	_	.	.	.	.	.	.
4cc	say	.	.	.	.	.	.
8cc	good-	.	.	.	.	.	.
[8cc	-bye	.	.	.	.	.	.
=69	=69	=69	=69	=69	=69	=69	=69
8cc]	_	1CM	.	voice	.	128.761	C:maj
4cc	no	.	.	.	.	.	.
8g	_	.	.	.	.	.	.
8r	.	.	.	.	.	.	.
4cc	oh	.	.	.	.	.	.
8g	_	.	.	.	.	.	.
=70	=70	=70	=70	=70	=70	=70	=70
8r	.	1CM	.	voice	.	130.664	C:maj
4cc	No	.	.	.	.	.	.
8g	_	.	.	.	.	.	.
8r	.	.	.	.	.	.	.
4cc	Ooh	.	.	.	.	.	.
8g	_	.	.	.	.	.	.
=71	=71	=71	=71	=71	=71	=71	=71
*>Letter>C	*>Letter>C	*>Letter>C	*>Letter>C	*>Letter>C	*>Letter>C	*>Letter>C	*>Letter>C
*>Label>Chorus	*>Label>Chorus	*>Label>Chorus	*>Label>Chorus	*>Label>Chorus	*>Label>Chorus	*>Label>Chorus	*>Label>Chorus
4r	.	1CM	newline	voice	.	132.567	C:maj
4cc	Hey	.	.	.	.	.	.
4g	_	.	.	.	.	.	.
8r	.	.	.	.	.	.	.
8g	I	.	.	.	.	.	.
=72	=72	=72	=72	=72	=72	=72	=72
8cc	ne-	1CM	.	voice	.	134.461	C:maj
8cc	-ver	.	.	.	.	.	.
8cc	can	.	.	.	.	.	.
8g	_	.	.	.	.	.	.
4cc	say	.	.	.	.	.	.
8cc	good-	.	.	.	.	.	.
8cc	-bye	.	.	.	.	.	.
=73	=73	=73	=73	=73	=73	=73	=73
8b-	_	1Cmm	.	voice	.	136.355	C:min7
[4.b-	boy	.	.	.	.	.	.
4b-]	_	.	.	.	.	.	.
4r	.	.	.	.	.	.	.
=74	=74	=74	=74	=74	=74	=74	=74
8r	.	1Cmm	.	voice	.	138.249	C:min7
8ee	Ooh	.	.	.	.	.	.
8dd	_	.	.	.	.	.	.
8dd	Hoo	.	.	.	.	.	.
16ee-	_	.	.	.	.	.	.
16dd	_	.	.	.	.	.	.
4cc	_	.	.	.	.	.	.
16dd	ba-	.	.	.	.	.	.
16ee-	_	.	.	.	.	.	.
=75	=75	=75	=75	=75	=75	=75	=75
8dd	_	1DM	newline	voice	.	140.143	D:maj/b7
8cc	-by	.	.	.	.	.	.
4a	_	.	.	.	.	.	.
4r	.	.	.	.	.	.	.
8r	.	.	.	.	.	.	.
8a	I	.	.	.	.	.	.
=76	=76	=76	=76	=76	=76	=76	=76
8cc	ne-	1D-MM	.	voice	.	142.039	D-:maj7/7
8cc	-ver	.	.	.	.	.	.
8cc	can	.	.	.	.	.	.
8a-	_	.	.	.	.	.	.
4cc	say	.	.	.	.	.	.
8cc	good-	.	.	.	.	.	.
[8cc	-bye	.	.	.	.	.	.
=77	=77	=77	=77	=77	=77	=77	=77
8cc]	_	1CM	.	voice	.	143.935	C:maj
8cc	No	.	.	.	.	.	.
8g	_	.	.	.	.	.	.
8cc	no	.	.	.	.	.	.
8g	_	.	.	.	.	.	.
8cc	no	.	.	.	.	.	.
4r	.	.	.	.	.	.	.
=78	=78	=78	=78	=78	=78	=78	=78
8r	.	1CM	.	voice	.	145.831	C:maj
8cc	no	.	.	.	.	.	.
8g	_	.	.	.	.	.	.
8cc	no	.	.	.	.	.	.
8g	_	.	.	.	.	.	.
4.cc	no	.	.	.	.	.	.
=79	=79	=79	=79	=79	=79	=79	=79
*>Letter>A	*>Letter>A	*>Letter>A	*>Letter>A	*>Letter>A	*>Letter>A	*>Letter>A	*>Letter>A
*>Label>Interlude	*>Label>Interlude	*>Label>Interlude	*>Label>Interlude	*>Label>Interlude	*>Label>Interlude	*>Label>Interlude	*>Label>Interlude
1r	.	1FMM	newline	voice	.	147.726	F:maj7
=80	=80	=80	=80	=80	=80	=80	=80
1r	.	1FMM	.	voice	.	149.624	F:maj7
=81	=81	=81	=81	=81	=81	=81	=81
2r	.	1Dmm	.	voice	.	151.521	D:min7
8r	.	.	.	.	.	.	.
[4.gg	Wooh	.	.	.	.	.	.
=82	=82	=82	=82	=82	=82	=82	=82
4gg]	_	1GM	.	voice	.	153.418	G:sus4(b7)
8aa	_	.	.	.	.	.	.
4ee	_	.	.	.	.	.	.
8cc	_	.	.	.	.	.	.
8g	_	.	.	.	.	.	.
[8cc	_	.	.	.	.	.	.
=83	=83	=83	=83	=83	=83	=83	=83
*>Letter>C	*>Letter>C	*>Letter>C	*>Letter>C	*>Letter>C	*>Letter>C	*>Letter>C	*>Letter>C
*>Label>Chorus	*>Label>Chorus	*>Label>Chorus	*>Label>Chorus	*>Label>Chorus	*>Label>Chorus	*>Label>Chorus	*>Label>Chorus
8cc]	_	1CM	newline	voice	.	155.315	C:maj
8cc	Hey	.	.	.	.	.	.
4.g	_	.	.	.	.	.	.
8r	.	.	.	.	.	.	.
8r	.	.	.	.	.	.	.
8g	I	.	.	.	.	.	.
=84	=84	=84	=84	=84	=84	=84	=84
8cc	ne-	1CM	.	voice	.	157.171	C:maj
8cc	-ver	.	.	.	.	.	.
8cc	can	.	.	.	.	.	.
8g	_	.	.	.	.	.	.
4cc	say	.	.	.	.	.	.
8cc	good-	.	.	.	.	.	.
8cc	-bye	.	.	.	.	.	.
=85	=85	=85	=85	=85	=85	=85	=85
8b-	_	1Cmm	.	voice	.	159.028	C:min7
[4.b-	boy	.	.	.	.	.	.
4b-]	_	.	.	.	.	.	.
4r	.	.	.	.	.	.	.
=86	=86	=86	=86	=86	=86	=86	=86
8r	.	1Cmm	.	voice	.	160.884	C:min7
4g	No	.	.	.	.	.	.
4cc	no	.	.	.	.	.	.
8cc	no	.	.	.	.	.	.
8dd	_	.	.	.	.	.	.
[8cc	ba-	.	.	.	.	.	.
=87	=87	=87	=87	=87	=87	=87	=87
*>Label>>Fadeout	*>Label>>Fadeout	*>Label>>Fadeout	*>Label>>Fadeout	*>Label>>Fadeout	*>Label>>Fadeout	*>Label>>Fadeout	*>Label>>Fadeout
8cc]	_	1DM	newline	voice	.	162.74	D:maj/b7
8cc	-by	.	.	.	.	.	.
4a	_	.	.	.	.	.	.
8r	.	.	.	.	.	.	.
4cc	hey	.	.	.	.	.	.
8g	_	.	.	.	.	.	.
=88	=88	=88	=88	=88	=88	=88	=88
8cc	ne-	1D-MM	.	voice	.	164.649	D-:maj7/7
8cc	-ver	.	.	.	.	.	.
8cc	can	.	.	.	.	.	.
8a-	_	.	.	.	.	.	.
4dd	say	.	.	.	.	.	.
8cc	good-	.	.	.	.	.	.
[8cc	-bye	.	.	.	.	.	.
=89	=89	=89	=89	=89	=89	=89	=89
8cc]	_	1CM	.	voice	.	166.558	C:maj
8cc	No	.	.	.	.	.	.
8g	_	.	.	.	.	.	.
8cc	no	.	.	.	.	.	.
8g	_	.	.	.	.	.	.
8cc	no	.	.	.	.	.	.
8g	_	.	.	.	.	.	.
[8cc	please	.	.	.	.	.	.
=90	=90	=90	=90	=90	=90	=90	=90
8cc]	_	1CM	.	voice	.	168.467	C:maj
4cc	don't	.	.	.	.	.	.
4cc	make	.	.	.	.	.	.
4cc	me	.	.	.	.	.	.
[8cc	say	.	.	.	.	.	.
=91	=91	=91	=91	=91	=91	=91	=91
8cc]	_	1CM	newline	voice	.	170.376	C:maj
4cc	good-	.	.	.	.	.	.
4cc	-bye	.	.	.	.	.	.
8r	.	.	.	.	.	.	.
4r	.	.	.	.	.	.	.
=92	=92	=92	=92	=92	=92	=92	=92
8r	.	1CM	.	voice	.	171.778	C:maj
4cc	hey	.	.	.	.	.	.
8g	_	.	.	.	.	.	.
2r	.	.	.	.	.	.	.
=93	=93	=93	=93	=93	=93	=93	=93
1r	.	1Cmm	.	voice	.	173.18	C:min7
=94	=94	=94	=94	=94	=94	=94	=94
1r	.	1Cmm	.	voice	.	174.582	C:min7
r;	.	1r;	.	r	.	175.984	N.C.
r;	.	1r;	.	r	.	178.051	N.C.
*-	*-	*-	*-	*-	*-	*-	*-
!!!BillboardChartDate: 1975/02/08, 1974/12/07
!!!BillboardPeak: 9, 9
!!!BillboardWeeksOnChart: 17, 17
!!!COC: Gloria Gaynor
!!!ENC: Nathaniel Condit-Schultz
!!!EST: Awating manual error checking and editing.
!!!OTL: Never Can Say Goodbye
!!!RDF**chordsym: original McGill chord annotation + (implied pitch class set, with bass pitch in first position)
!!!RDF**harmony: **recip + pitch class of root + harmonic quality
!!!RDF**leadinstrument: original McGill primary instrumentation annotation
!!!RDF**phrase: newline = linebreak in original McGill transcription
!!!RDF**timestamp: McGill audio timestamp in seconds
!!!RDT: 2017/01/12/
!!!SampleActualRank: 20, 34
!!!SampleID#: 190, 1068
!!!SampleTargetRank: 20, 35
